X: 25208
T: Malcolm's New Fiddle
R: jig
M: 6/8
K: Emajor
~B,2E EFG|FEE EGB|e2g fec|BGE FEC|
B,2E EFG|FEE EGB|efg fec|BGE ~E3:|
B2c BGB|e2g fge|Bcc BBB|BGF FGA|
B2c BGB|e2g fge|cec B2c|1 BGE EGA:|2 BGE E3||

